X: 1
T:Walking The Moon  "http://freespace.virgin.net/michael.clarke2/index.h
M:C|
L:1/8
Q:80
C:
S:Hornpipe
K:HP
|: e|
{ag}a{g}a{fg}f3/2e/2{A}e3/2c/2|
{gef}e{A}e{gcd}c3/2B/2{G}B3/2c/2|
{g}A{GAG}A{g}c3/2e/2{A}e3/2f/2|  !
{g}f3/2e/2{A}e3/2c/2{gef}e{g}f3/2g/2| |
{ag}a{g}a{fg}f3/2e/2{A}e3/2c/2|
{gef}e{A}e{gcd}c3/2B/2{G}B3/2c/2|  !
{g}A{GAG}A{g}c3/2e/2{A}e3/2c/2|
{g}B3/2c/2{G}c3/2B/2{g}A:| |:
B|  !
{g}c{G}c{g}B3/2{d}A/2{e}A3/2{d}c/2|
{gef}e{A}e{g}f3/2e/2{A}e3/2f/2|
{ag}a{g}a{fg}f3/2e/2{A}e3/2f/2|  !
{g}f3/2e/2{A}e3/2c/2{gef}e{g}A3/2B/2| |
{g}c{G}c{g}B3/2{d}A/2{e}A3/2{d}c/2|
{gef}e{A}e{g}f3/2e/2{A}e3/2f/2|  !
{ag}a{g}a{fg}f3/2e/2{A}e3/2c/2|
{g}B3/2c/2{G}c3/2B/2{g}A:|
